status/symbolic/battery-caution-symbolic.svg

<svg enable-background="new" height="16" width="16" xmlns="http://www.w3.org/2000/svg">
  <path d="m4 5.3300781v5.3398439h7.457031c.251831 0 .457031-.201296.457031-.453125v-4.4335939c.000001-.251831-.2052-.453125-.457031-.453125z" fill="#bebebe" fill-opacity=".156863" stroke-width=".857143" />
  <path d="m4 5.328125-.794922.0019c-.172474 0-.310547.201293-.310547.453125v4.433594c0 .251832.138073.453131.310547.453125h.794922z" fill="#d33636" fill-opacity=".666667" stroke-width=".70935" />
  <path d="m2.517578 4.489469c-.285873 0-.517578.232548-.517578.517578v5.984376c0 .286305.231705.517577.517578.517577h10.041017c.28628 0 .517578-.231702.517578-.517577v-1.062501h.40625c.286289 0 .517579-.23045.517579-.517578v-2.779297c.000446-.286285-.231292-.519531-.517579-.519531h-.40625v-1.105469c0-.28503-.231275-.517578-.517578-.517578zm.830078.839843h8.109376c.251831 0 .457033.201294.457032.453125v4.433595c0 .251829-.205201.453125-.457032.453125h-8.109376c-.251831 0-.453124-.201296-.453125-.453125v-4.433595c0-.251831.201294-.453125.453125-.453125z" fill="#bebebe" stroke-width=".857143" />
</svg>

<?xml version="1.0" encoding="UTF-8" standalone="no"?>
<!-- Created with Inkscape (http://www.inkscape.org/) -->

<svg
   xmlns:dc="http://purl.org/dc/elements/1.1/"
   xmlns:cc="http://creativecommons.org/ns#"
   xmlns:rdf="http://www.w3.org/1999/02/22-rdf-syntax-ns#"
   xmlns:svg="http://www.w3.org/2000/svg"
   xmlns="http://www.w3.org/2000/svg"
   xmlns:sodipodi="http://sodipodi.sourceforge.net/DTD/sodipodi-0.dtd"
   xmlns:inkscape="http://www.inkscape.org/namespaces/inkscape"
   id="svg7384"
   style="enable-background:new"
   height="16"
   width="16"
   version="1.1"
   inkscape:version="0.92.1 r15371"
   sodipodi:docname="battery-caution-symbolic.svg">
  <sodipodi:namedview
     pagecolor="#a1a1a1"
     bordercolor="#666666"
     borderopacity="1"
     objecttolerance="10"
     gridtolerance="10"
     guidetolerance="10"
     inkscape:pageopacity="0"
     inkscape:pageshadow="2"
     inkscape:window-width="1600"
     inkscape:window-height="840"
     id="namedview11"
     showgrid="false"
     inkscape:zoom="29.5"
     inkscape:cx="13.901021"
     inkscape:cy="8.1915009"
     inkscape:window-x="0"
     inkscape:window-y="32"
     inkscape:window-maximized="1"
     inkscape:current-layer="svg7384" />
  <metadata
     id="metadata90">
    <rdf:RDF>
      <cc:Work
         rdf:about="">
        <dc:format>image/svg+xml</dc:format>
        <dc:type
           rdf:resource="http://purl.org/dc/dcmitype/StillImage" />
        <dc:title>Paper Symbolic Icon Theme</dc:title>
      </cc:Work>
    </rdf:RDF>
  </metadata>
  <title
     id="title8473">Paper Symbolic Icon Theme</title>
  <defs
     id="defs7386">
    <filter
       id="filter7554"
       style="color-interpolation-filters:sRGB">
      <feBlend
         id="feBlend7556"
         in2="BackgroundImage"
         mode="darken" />
    </filter>
  </defs>
  <g
     style="fill:#ffffff;fill-opacity:1;enable-background:new"
     transform="matrix(0.00985356,0,0,0.00985356,6.672677,26.500402)"
     id="g3-9-36">
    <g
       style="fill:#ffffff;fill-opacity:1"
       id="g5-4-7" />
  </g>
  <g
     style="fill:#ffffff;fill-opacity:1;enable-background:new"
     transform="matrix(0.00985356,0,0,0.00985356,39.118849,26.06306)"
     id="g3-9-3">
    <g
       style="fill:#ffffff;fill-opacity:1"
       id="g5-4-6" />
  </g>
  <g
     id="g5067">
    <g
       id="g5061">
      <path
         style="fill:#bebebe;fill-opacity:0.15686275;stroke-width:0.85714281;enable-background:new"
         d="M 4 5.3300781 L 4 10.669922 L 11.457031 10.669922 C 11.708862 10.669922 11.914062 10.468626 11.914062 10.216797 L 11.914062 5.7832031 C 11.914063 5.5313721 11.708862 5.3300781 11.457031 5.3300781 L 4 5.3300781 z "
         id="path10478" />
      <path
         inkscape:connector-curvature="0"
         style="fill:#d33636;fill-opacity:0.66666667;stroke-width:0.70935035;enable-background:new"
         d="m 4,5.328125 -0.794922,0.0019 c -0.172474,0 -0.310547,0.201293 -0.310547,0.453125 v 4.433594 c 0,0.251832 0.138073,0.453131 0.310547,0.453125 H 4 Z"
         id="path841-6"
         sodipodi:nodetypes="ccssccc" />
    </g>
    <path
       id="path854-3"
       d="M 2.517578,4.489469 C 2.231705,4.489469 2,4.722017 2,5.007047 v 5.984376 C 2,11.277728 2.231705,11.509 2.517578,11.509 h 10.041017 c 0.28628,0 0.517578,-0.231702 0.517578,-0.517577 V 9.928922 h 0.40625 c 0.286289,0 0.517579,-0.23045 0.517579,-0.517578 V 6.632047 C 14.000448,6.345762 13.76871,6.112516 13.482423,6.112516 h -0.40625 V 5.007047 c 0,-0.28503 -0.231275,-0.517578 -0.517578,-0.517578 z m 0.830078,0.839843 h 8.109376 c 0.251831,0 0.457033,0.201294 0.457032,0.453125 v 4.433595 c 0,0.251829 -0.205201,0.453125 -0.457032,0.453125 H 3.347656 c -0.251831,0 -0.453124,-0.201296 -0.453125,-0.453125 V 5.782437 c 0,-0.251831 0.201294,-0.453125 0.453125,-0.453125 z"
       style="fill:#bebebe;fill-opacity:1;stroke-width:0.85714281;enable-background:new"
       inkscape:connector-curvature="0" />
  </g>
</svg>
